X: 21172
T: MISS MARGARET McDOUGAL OF ARDBEG
C: Strathspey.--Alexander McKay
%R: strathspey, reel
B: W. Hamilton "Universal Tune-Book" Vol. 2 Glasgow 1846 p.117 #2
S: http://s3-eu-west-1.amazonaws.com/itma.dl.printmaterial/book_pdfs/hamiltonvol2web.pdf
Z: 2016 John Chambers <jc:trillian.mit.edu>
M: C
L: 1/8
K: Gm
% - - - - - - - - - - - - - - - - - - - - - - - - -
|:\
DGB,G DGBd | cFAd cFAF |\
DGB,G DGBd | cFcA G2G2 :|\
GgAg dGBG | FG Af cFAF |
GgBg dGBd | BF d/c/B/A/ G2G2 |\
GgBg dGBG | FG Af cFAF |\
GBAc Bdcf | dBcA G2G2 |]
% - - - - - - - - - - - - - - - - - - - - - - - - -

%%sep 1 1 500
%%sep 1 1 500

